X: 41348
T: Turnpike Gate, The
R: reel
M: 4/4
K: Gmajor
~g3b agab|gabg agef|~g3b agab|gabg ~a3z|
~g3b agab|gabg agfd|~e3d edBd|gedB A2BA||

